src/assets/outline/TruckTick.svg

<?xml version="1.0" encoding="UTF-8"?>
<svg width="24" height="24" viewBox="0 0 24 24" xmlns="http://www.w3.org/2000/svg">
 <path d="m13 14.75h-11c-0.41 0-0.75-0.34-0.75-0.75v-6.38c0-0.32001 0.19999-0.60003 0.48999-0.71003 0.3-0.11 0.63002-0.01996 0.83002 0.22003 0.61 0.73 1.56 1.14 2.5 1.11 0.8-0.02 1.54-0.31998 2.1-0.84998 0.26-0.22 0.47001-0.48001 0.63001-0.77001 0.31-0.53 0.46001-1.11 0.45001-1.7-0.02-0.92-0.41998-1.76-1.1-2.37-0.24-0.21-0.32002-0.54002-0.21002-0.83002s0.39001-0.48999 0.70001-0.48999h7.36c0.41 0 0.75 0.34 0.75 0.75v10c0 1.54-1.23 2.77-2.75 2.77zm-10.25-1.5h10.25c0.69 0 1.25-0.56 1.25-1.25v-9.25h-5.06c0.35 0.65 0.54 1.38 0.56 2.14 0.02 0.87-0.20002 1.73-0.64001 2.48-0.24 0.42999-0.57 0.84001-0.93 1.14-0.8 0.76-1.9 1.21-3.07 1.24-0.84 0.03-1.65-0.18-2.35-0.56v4.06h-0.01001z"/>
 <path d="m19 20.75h-1c-0.41 0-0.75-0.34-0.75-0.75 0-0.69-0.56-1.25-1.25-1.25s-1.25 0.56-1.25 1.25c0 0.41-0.34 0.75-0.75 0.75h-4c-0.41 0-0.75-0.34-0.75-0.75 0-0.69-0.56-1.25-1.25-1.25s-1.25 0.56-1.25 1.25c0 0.41-0.34 0.75-0.75 0.75h-1c-2.07 0-3.75-1.68-3.75-3.75v-3c0-0.41 0.34-0.75 0.75-0.75h11c0.69 0 1.25-0.56 1.25-1.25v-7c0-0.41 0.34-0.75 0.75-0.75h1.84c0.99 0 1.9 0.53001 2.39 1.39l1.71 2.99c0.13 0.23 0.13 0.52 0 0.75s-0.38 0.37-0.65 0.37h-1.29c-0.14 0-0.25 0.11-0.25 0.25v3c0 0.14 0.11 0.25 0.25 0.25h3c0.41 0 0.75 0.34 0.75 0.75v3c0 2.07-1.68 3.75-3.75 3.75zm-0.35-1.5h0.35c1.24 0 2.25-1.01 2.25-2.25v-2.25h-2.25c-0.96 0-1.75-0.79-1.75-1.75v-3c0-0.96 0.78-1.75 1.75-1.75l-1.07-1.87c-0.22-0.39-0.64-0.63-1.09-0.63h-1.09v6.25c0 1.52-1.23 2.75-2.75 2.75h-10.25v2.25c0 1.24 1.01 2.25 2.25 2.25h0.34998c0.33-1.15 1.39-2 2.65-2s2.32 0.85 2.65 2h2.71c0.33-1.15 1.39-2 2.65-2s2.31 0.85 2.64 2z"/>
 <path d="m8 22.75c-1.52 0-2.75-1.23-2.75-2.75s1.23-2.75 2.75-2.75 2.75 1.23 2.75 2.75-1.23 2.75-2.75 2.75zm0-4c-0.69 0-1.25 0.56-1.25 1.25s0.56 1.25 1.25 1.25 1.25-0.56 1.25-1.25-0.56-1.25-1.25-1.25z"/>
 <path d="m16 22.75c-1.52 0-2.75-1.23-2.75-2.75s1.23-2.75 2.75-2.75 2.75 1.23 2.75 2.75-1.23 2.75-2.75 2.75zm0-4c-0.69 0-1.25 0.56-1.25 1.25s0.56 1.25 1.25 1.25 1.25-0.56 1.25-1.25-0.56-1.25-1.25-1.25z"/>
 <path d="m22 14.75h-3c-0.96 0-1.75-0.79-1.75-1.75v-3c0-0.96 0.79-1.75 1.75-1.75h1.29c0.27 0 0.52 0.14 0.65 0.38l1.71 3c0.06 0.11 0.1 0.24 0.1 0.37v2c0 0.41-0.34 0.75-0.75 0.75zm-3-5c-0.14 0-0.25 0.11-0.25 0.25v3c0 0.14 0.11 0.25 0.25 0.25h2.25v-1.05l-1.4-2.45h-0.85z"/>
 <path d="m4.9901 9.75c-1.38 0-2.68-0.60002-3.56-1.65-0.14-0.15-0.28999-0.36-0.41999-0.56-0.47-0.71-0.73-1.55-0.75-2.43-0.04-1.46 0.58001-2.83 1.7-3.76 0.85-0.7 1.87-1.08 2.95-1.1 1.18 0.01 2.36 0.4 3.24 1.19 1 0.88 1.58 2.11 1.61 3.45 0.02 0.87-0.20001 1.73-0.64001 2.48-0.24 0.42999-0.56999 0.84001-0.92999 1.14-0.8 0.76-1.9 1.21-3.07 1.24h-0.13001zm0-8h-0.05999c-0.73 0.01-1.43 0.28001-2.02 0.76001-0.76 0.63-1.18 1.57-1.16 2.56 0.02 0.6 0.19001 1.17 0.51001 1.64 0.09 0.14 0.17998 0.26996 0.28998 0.38996 0.64 0.76 1.59 1.16 2.52 1.14 0.8-0.02 1.54-0.31998 2.1-0.84998 0.26-0.22 0.47-0.48001 0.63-0.77001 0.31-0.53 0.46001-1.11 0.45001-1.7-0.02-0.92-0.41997-1.76-1.1-2.37-0.6-0.51-1.36-0.79999-2.16-0.79999z"/>
 <path d="m4.4499 6.7497c-0.19 0-0.37002-0.07002-0.52002-0.21002l-1.01-0.95996c-0.3-0.29-0.30996-0.76-0.01996-1.06s0.76-0.31002 1.06-0.02002l0.48999 0.46997 1.57-1.52c0.3-0.29 0.77-0.28004 1.06 0.01996s0.27998 0.77006-0.02002 1.0601l-2.09 2.02c-0.15 0.13-0.33996 0.20001-0.51996 0.20001z"/>
</svg>

<svg width="24" height="24" viewBox="0 0 24 24"  xmlns="http://www.w3.org/2000/svg">
<path d="M13 14.75H2C1.59 14.75 1.25 14.41 1.25 14V7.62C1.25 7.29999 1.44999 7.01997 1.73999 6.90997C2.03999 6.79997 2.37001 6.89001 2.57001 7.13C3.18001 7.86 4.13001 8.26999 5.07001 8.23999C5.87001 8.21999 6.60998 7.92001 7.16998 7.39001C7.42998 7.17001 7.63999 6.91 7.79999 6.62C8.10999 6.09 8.26 5.50998 8.25 4.91998C8.23 3.99998 7.83002 3.15999 7.15002 2.54999C6.91002 2.33999 6.83 2.00997 6.94 1.71997C7.05 1.42997 7.33001 1.22998 7.64001 1.22998H15C15.41 1.22998 15.75 1.56998 15.75 1.97998V11.98C15.75 13.52 14.52 14.75 13 14.75ZM2.75 13.25H13C13.69 13.25 14.25 12.69 14.25 12V2.75H9.19C9.54 3.4 9.73 4.13001 9.75 4.89001C9.77 5.76001 9.54998 6.62 9.10999 7.37C8.86999 7.79999 8.53999 8.21001 8.17999 8.51001C7.37999 9.27001 6.27999 9.72 5.10999 9.75C4.26999 9.78 3.46001 9.57 2.76001 9.19V13.25H2.75Z" />
<path d="M19 20.75H18C17.59 20.75 17.25 20.41 17.25 20C17.25 19.31 16.69 18.75 16 18.75C15.31 18.75 14.75 19.31 14.75 20C14.75 20.41 14.41 20.75 14 20.75H10C9.59 20.75 9.25 20.41 9.25 20C9.25 19.31 8.69 18.75 8 18.75C7.31 18.75 6.75 19.31 6.75 20C6.75 20.41 6.41 20.75 6 20.75H5C2.93 20.75 1.25 19.07 1.25 17V14C1.25 13.59 1.59 13.25 2 13.25H13C13.69 13.25 14.25 12.69 14.25 12V5C14.25 4.59 14.59 4.25 15 4.25H16.84C17.83 4.25 18.74 4.78001 19.23 5.64001L20.94 8.63C21.07 8.86 21.07 9.15 20.94 9.38C20.81 9.61 20.56 9.75 20.29 9.75H19C18.86 9.75 18.75 9.86 18.75 10V13C18.75 13.14 18.86 13.25 19 13.25H22C22.41 13.25 22.75 13.59 22.75 14V17C22.75 19.07 21.07 20.75 19 20.75ZM18.65 19.25H19C20.24 19.25 21.25 18.24 21.25 17V14.75H19C18.04 14.75 17.25 13.96 17.25 13V10C17.25 9.04 18.03 8.25 19 8.25L17.93 6.38C17.71 5.99 17.29 5.75 16.84 5.75H15.75V12C15.75 13.52 14.52 14.75 13 14.75H2.75V17C2.75 18.24 3.76 19.25 5 19.25H5.34998C5.67998 18.1 6.74 17.25 8 17.25C9.26 17.25 10.32 18.1 10.65 19.25H13.36C13.69 18.1 14.75 17.25 16.01 17.25C17.27 17.25 18.32 18.1 18.65 19.25Z" />
<path d="M8 22.75C6.48 22.75 5.25 21.52 5.25 20C5.25 18.48 6.48 17.25 8 17.25C9.52 17.25 10.75 18.48 10.75 20C10.75 21.52 9.52 22.75 8 22.75ZM8 18.75C7.31 18.75 6.75 19.31 6.75 20C6.75 20.69 7.31 21.25 8 21.25C8.69 21.25 9.25 20.69 9.25 20C9.25 19.31 8.69 18.75 8 18.75Z" />
<path d="M16 22.75C14.48 22.75 13.25 21.52 13.25 20C13.25 18.48 14.48 17.25 16 17.25C17.52 17.25 18.75 18.48 18.75 20C18.75 21.52 17.52 22.75 16 22.75ZM16 18.75C15.31 18.75 14.75 19.31 14.75 20C14.75 20.69 15.31 21.25 16 21.25C16.69 21.25 17.25 20.69 17.25 20C17.25 19.31 16.69 18.75 16 18.75Z" />
<path d="M22 14.75H19C18.04 14.75 17.25 13.96 17.25 13V10C17.25 9.04 18.04 8.25 19 8.25H20.29C20.56 8.25 20.81 8.39 20.94 8.63L22.65 11.63C22.71 11.74 22.75 11.87 22.75 12V14C22.75 14.41 22.41 14.75 22 14.75ZM19 9.75C18.86 9.75 18.75 9.86 18.75 10V13C18.75 13.14 18.86 13.25 19 13.25H21.25V12.2L19.85 9.75H19Z" />
<path d="M4.9901 9.75C3.6101 9.75 2.31011 9.14998 1.43011 8.09998C1.29011 7.94998 1.14012 7.73998 1.01012 7.53998C0.540123 6.82998 0.280123 5.98999 0.260123 5.10999C0.220123 3.64999 0.840136 2.27998 1.96014 1.34998C2.81014 0.649976 3.83009 0.27 4.91009 0.25C6.09009 0.26 7.27014 0.650002 8.15014 1.44C9.15014 2.32 9.73012 3.55001 9.76012 4.89001C9.78012 5.76001 9.56011 6.62 9.12011 7.37C8.88011 7.79999 8.55012 8.21001 8.19012 8.51001C7.39012 9.27001 6.29011 9.72 5.12011 9.75C5.07011 9.75 5.0301 9.75 4.9901 9.75ZM4.9901 1.75C4.9701 1.75 4.95011 1.75 4.93011 1.75C4.20011 1.76 3.50009 2.03001 2.91009 2.51001C2.15009 3.14001 1.73011 4.08001 1.75011 5.07001C1.77011 5.67001 1.94012 6.24002 2.26012 6.71002C2.35012 6.85002 2.4401 6.97998 2.5501 7.09998C3.1901 7.85998 4.14012 8.25999 5.07012 8.23999C5.87012 8.21999 6.6101 7.92001 7.1701 7.39001C7.4301 7.17001 7.6401 6.91 7.8001 6.62C8.1101 6.09 8.26011 5.50998 8.25011 4.91998C8.23011 3.99998 7.83014 3.15999 7.15014 2.54999C6.55014 2.03999 5.7901 1.75 4.9901 1.75Z" />
<path d="M4.44988 6.74968C4.25988 6.74968 4.07986 6.67966 3.92986 6.53966L2.91985 5.5797C2.61985 5.2897 2.60989 4.8197 2.89989 4.5197C3.18989 4.2197 3.65989 4.20968 3.95989 4.49968L4.44988 4.96965L6.01988 3.44969C6.31988 3.15969 6.78988 3.16965 7.07988 3.46965C7.36988 3.76965 7.35986 4.23971 7.05986 4.52971L4.96984 6.54967C4.81984 6.67967 4.62988 6.74968 4.44988 6.74968Z" />
</svg>
